X: 1
T: Moreton Bay
F: http://www.scottishfiddlers.com/Sydney/Music/PDFs/National%20Set%2000.pdf
R: waltz
Z: 2008 John Chambers <jc:trillian.mit.edu>
M: 3/4
L: 1/8
K: D
D \
| "D"DA, D2 FA | "Bm"dc B2 dB | "D"AF D2 EF | "G"ED B,2 zB,/C/ \
| "D"DA, D2 FA | "Bm"dc B2 dB | "D"AF F>E "A"DE | "D"DD D2 zA |
| "D"AF  A2 Bc | "Bm"dc B2 dB | "D"AF D2 EF | "G"ED B,2 zD \
| "D"DA, D2 FA | "Bm"dc B2 dB | "D"AF F>E "A"DE | "D"DD D3 |]
